web3-branding-crypto-fintech-game/img/header/chevron_down.svg

<svg width="24" height="24" viewBox="0 0 24 24" fill="none" xmlns="http://www.w3.org/2000/svg">
<path d="M11.9961 16.7501C12.332 16.7501 12.6211 16.6172 12.8789 16.3594L18.7305 10.3594C18.9336 10.1563 19.043 9.90631 19.043 9.60944C19.043 9.00006 18.5586 8.51569 17.957 8.51569C17.6602 8.51569 17.3789 8.63287 17.1602 8.85162L12.0039 14.1641L6.83984 8.85162C6.62109 8.64069 6.34766 8.51569 6.04297 8.51569C5.44141 8.51569 4.95703 9.00006 4.95703 9.60944C4.95703 9.90631 5.06641 10.1563 5.26953 10.3672L11.1211 16.3594C11.3945 16.6251 11.668 16.7501 11.9961 16.7501Z" fill="white"/>
</svg>

<svg width="24" height="24" fill="none" xmlns="http://www.w3.org/2000/svg"><path d="M11.996 16.75c.336 0 .625-.133.883-.39l5.851-6c.204-.204.313-.454.313-.75 0-.61-.484-1.094-1.086-1.094-.297 0-.578.117-.797.336l-5.156 5.312L6.84 8.852a1.137 1.137 0 0 0-.797-.336c-.602 0-1.086.484-1.086 1.093 0 .297.11.547.313.758l5.851 5.992c.274.266.547.391.875.391Z" fill="#fff"/></svg>.34766 8.51569 6.04297 8.51569C5.44141 8.51569 4.95703 9.00006 4.95703 9.60944C4.95703 9.90631 5.06641 10.1563 5.26953 10.3672L11.1211 16.3594C11.3945 16.6251 11.668 16.7501 11.9961 16.7501Z" fill="white"/>
</svg>
